svgs/sharp-light/scanner-keyboard.svg

<svg xmlns="http://www.w3.org/2000/svg" viewBox="0 0 512 512"><!--! Font Awesome Pro 6.6.0 by @fontawesome - https://fontawesome.com License - https://fontawesome.com/license (Commercial License) Copyright 2024 Fonticons, Inc. --><path d="M128 0l0 64 32 0 0-64L128 0zM320 0l0 64 32 0 0-64L320 0zM224 0L192 0l0 64 32 0 0-64zM400 0l0 288 32 0L432 0 400 0zM512 0L480 0l0 288 32 0L512 0zM320 128l0 352L32 480l0-352 288 0zM32 96L0 96l0 32L0 480l0 32 32 0 288 0 32 0 0-32 0-352 0-32-32 0L32 96zm64 96l160 0 0 64L96 256l0-64zM64 160l0 32 0 64 0 32 32 0 160 0 32 0 0-32 0-64 0-32-32 0L96 160l-32 0zm96 160l-96 0 0 32 96 0 0-32zM64 384l0 32 96 0 0-32-96 0zm224-64l-96 0 0 32 96 0 0-32zm-96 64l0 32 96 0 0-32-96 0z"/></svg>

<svg xmlns="http://www.w3.org/2000/svg" viewBox="0 0 512 512"><!--! Font Awesome Pro 6.5.2 by @fontawesome - https://fontawesome.com License - https://fontawesome.com/license (Commercial License) Copyright 2024 Fonticons, Inc. --><path d="M128 0V64h32V0H128zM320 0V64h32V0H320zM224 0H192V64h32V0zM400 0V288h32V0H400zM512 0H480V288h32V0zM320 128V480H32V128H320zM32 96H0v32V480v32H32 320h32V480 128 96H320 32zm64 96H256v64H96V192zM64 160v32 64 32H96 256h32V256 192 160H256 96 64zm96 160H64v32h96V320zM64 384v32h96V384H64zm224-64H192v32h96V320zm-96 64v32h96V384H192z"/></svg>
